packages/icons/src/SVG/presentation-solid.svg

<svg width="12" height="12" viewBox="0 0 12 12" fill="none" xmlns="http://www.w3.org/2000/svg">
<path fill-rule="evenodd" clip-rule="evenodd" d="M0 4V10H4.49263L3.25 11.2426L3.95711 11.9497L5.84988 10.057L7.74266 11.9497L8.44977 11.2426L7.20714 10H12V4H0ZM3 5H9V6H3V5ZM3 7H9V8H3V7Z" fill="#4C505B"/>
<path fill-rule="evenodd" clip-rule="evenodd" d="M0 0V3H12V0H0Z" fill="#4C505B"/>
</svg>

<!-- Generated by IcoMoon.io -->
<svg version="1.1" xmlns="http://www.w3.org/2000/svg" width="12" height="12" viewBox="0 0 12 12">
<title>presentation-solid</title>
<path d="M0 4v6h4.493l-1.243 1.243 0.707 0.707 1.893-1.893 1.893 1.893 0.707-0.707-1.243-1.243h4.793v-6h-12zM3 5h6v1h-6v-1zM3 7h6v1h-6v-1z"></path>
<path d="M0 0v3h12v-3h-12z"></path>
</svg>
